lib/svg/quote.svg

<?xml version="1.0" encoding="UTF-8" standalone="no"?>
<svg width="14px" height="16px" viewBox="0 0 14 16" version="1.1" xmlns="http://www.w3.org/2000/svg" xmlns:xlink="http://www.w3.org/1999/xlink">
    <!-- Generator: Sketch 3.8.3 (29802) - http://www.bohemiancoding.com/sketch -->
    <title>quote</title>
    <desc>Created with Sketch.</desc>
    <defs></defs>
    <g id="Octicons" stroke="none" stroke-width="1" fill="none" fill-rule="evenodd">
        <g id="quote" fill="#000000">
            <path d="M6.16,3.50000004 C3.73,5.06000004 2.55,6.67000004 2.55,9.36000004 C2.71,9.31000004 2.85,9.31000004 2.99,9.31000004 C4.26,9.31000004 5.49,10.17 5.49,11.72 C5.49,13.33 4.46,14.33 2.99,14.33 C1.09,14.33 0,12.81 0,10.08 C0,6.28000004 1.75,3.55000004 5.02,1.66000004 L6.16,3.50000004 L6.16,3.50000004 Z M13.16,3.50000004 C10.73,5.06000004 9.55,6.67000004 9.55,9.36000004 C9.71,9.31000004 9.85,9.31000004 9.99,9.31000004 C11.26,9.31000004 12.49,10.17 12.49,11.72 C12.49,13.33 11.46,14.33 9.99,14.33 C8.1,14.33 7.01,12.81 7.01,10.08 C7.01,6.28000004 8.76,3.55000004 12.03,1.66000004 L13.17,3.50000004 L13.16,3.50000004 Z" id="Shape"></path>
        </g>
    </g>
</svg>

<svg xmlns="http://www.w3.org/2000/svg" width="14" height="16" viewBox="0 0 14 16"><path d="M6.16 3.5C3.73 5.06 2.55 6.67 2.55 9.36c.16-.05.3-.05.44-.05 1.27 0 2.5.86 2.5 2.41 0 1.61-1.03 2.61-2.5 2.61-1.9 0-2.99-1.52-2.99-4.25 0-3.8 1.75-6.53 5.02-8.42L6.16 3.5zm7 0c-2.43 1.56-3.61 3.17-3.61 5.86.16-.05.3-.05.44-.05 1.27 0 2.5.86 2.5 2.41 0 1.61-1.03 2.61-2.5 2.61-1.89 0-2.98-1.52-2.98-4.25 0-3.8 1.75-6.53 5.02-8.42l1.14 1.84h-.01z"/></svg>
